packages/axiom-materials/src/icon_svgs/exclude.svg

<svg xmlns="http://www.w3.org/2000/svg" width="16" height="16" viewBox="0 0 16 16">
  <path fill-rule="evenodd" d="M8.0003,13 C7.0863,13 6.2413,12.737 5.5043,12.309 L12.3093,5.505 C12.7363,6.241 13.0003,7.087 13.0003,8 C13.0003,10.762 10.7613,13 8.0003,13 M3.0003,8 C3.0003,5.238 5.2383,3 8.0003,3 C8.9373,3 9.8053,3.274 10.5553,3.724 L3.7233,10.555 C3.2733,9.805 3.0003,8.938 3.0003,8 M8.0003,1 C4.1343,1 1.0003,4.134 1.0003,8 C1.0003,11.866 4.1343,15 8.0003,15 C11.8653,15 15.0003,11.866 15.0003,8 C15.0003,4.134 11.8653,1 8.0003,1"/>
</svg>

<svg height="16" viewBox="0 0 16 16" width="16" xmlns="http://www.w3.org/2000/svg"><path d="m8.0003 13c-.914 0-1.759-.263-2.496-.691l6.805-6.804c.427.736.691 1.582.691 2.495 0 2.762-2.239 5-5 5m-5-5c0-2.762 2.238-5 5-5 .937 0 1.805.274 2.555.724l-6.832 6.831c-.45-.75-.723-1.617-.723-2.555m5-7c-3.866 0-7 3.134-7 7s3.134 7 7 7c3.865 0 7-3.134 7-7s-3.135-7-7-7" fill-rule="evenodd"/></svg>
